shields/template_usaaz.svg

<?xml version="1.0" encoding="UTF-8" standalone="no"?>
<!-- Created with Inkscape (http://www.inkscape.org/) -->

<svg
   xmlns:dc="http://purl.org/dc/elements/1.1/"
   xmlns:cc="http://creativecommons.org/ns#"
   xmlns:rdf="http://www.w3.org/1999/02/22-rdf-syntax-ns#"
   xmlns:svg="http://www.w3.org/2000/svg"
   xmlns="http://www.w3.org/2000/svg"
   xmlns:sodipodi="http://sodipodi.sourceforge.net/DTD/sodipodi-0.dtd"
   xmlns:inkscape="http://www.inkscape.org/namespaces/inkscape"
   width="600"
   height="600"
   viewbox="0 0 600 600"
   id="svg2"
   sodipodi:version="0.32"
   inkscape:version="0.91 r"
   version="1.0"
   sodipodi:docname="template_usaaz.svg">
  <defs
     id="defs4" />
  <sodipodi:namedview
     id="base"
     pagecolor="#ffffff"
     bordercolor="#666666"
     borderopacity="1.0"
     inkscape:pageopacity="0.0"
     inkscape:pageshadow="2"
     inkscape:zoom="0.6625"
     inkscape:cx="571.71084"
     inkscape:cy="331.28579"
     inkscape:document-units="px"
     inkscape:current-layer="layer1"
     inkscape:window-width="1920"
     inkscape:window-height="1020"
     inkscape:window-x="0"
     inkscape:window-y="0"
     showgrid="false"
     inkscape:window-maximized="1" />
  <metadata
     id="metadata7">
    <rdf:RDF>
      <cc:Work
         rdf:about="">
        <dc:format>image/svg+xml</dc:format>
        <dc:type
           rdf:resource="http://purl.org/dc/dcmitype/StillImage" />
        <dc:title></dc:title>
      </cc:Work>
    </rdf:RDF>
  </metadata>
  <g
     inkscape:label="Layer 1"
     inkscape:groupmode="layer"
     id="layer1">
    <path
       id="path5"
       d="M 0,50 C 0,22.38574 22.38525,0 50,0 L 550,0 C 577.61426,0 600,22.38574 600,50 L 600,550 C 600,577.61523 577.61426,600 550,600 L 50,600 C 22.38525,600 0,577.61523 0,550 L 0,50 L 0,50 z " />
    <path
       d=""
       id="path7" />
    <path
       style="fill:none;stroke:#000000;stroke-opacity:1"
       d="M 374.59802,580.5461 C 374.55036,580.43395 294.60686,562.09322 196.94588,539.78895 L 19.380464,499.23573 L 19.315122,299.55292 L 19.24978,99.870091 L 66.12814,99.936511 L 113.0066,100.00293 L 113.0066,59.626405 L 113.0066,19.249888 L 346.81312,19.249888 L 580.61974,19.249888 L 580.68498,299.99999 L 580.75022,580.75011 L 477.71748,580.75011 C 421.04945,580.75011 374.64567,580.65825 374.59802,580.5461 z "
       id="path3281" />
    <path
       style="fill:#ffffff;fill-opacity:1;stroke:none;stroke-opacity:1"
       d="M 374.73081,581.04563 C 374.68307,580.93328 294.59726,562.55989 196.76243,540.2159 L 18.880917,499.59048 L 18.815459,299.55212 L 18.75,99.513752 L 65.711811,99.58029 L 112.67372,99.646829 L 112.67372,59.198409 L 112.67372,18.75 L 346.89645,18.75 L 581.11928,18.75 L 581.18464,299.99999 L 581.25,581.25 L 478.03384,581.25 C 421.26494,581.25 374.77855,581.15798 374.73081,581.04563 z "
       id="path4166" />
    <path
       transform="scale(1.015655,0.984586)"
       style="font-size:94.96376801px;font-style:normal;font-variant:normal;font-weight:normal;font-stretch:normal;text-align:center;line-height:100%;writing-mode:lr-tb;text-anchor:middle;font-family:Roadgeek 2014 Series D"
       d="M 206.18562,113.12165 L 199.91801,95.268462 L 180.07058,95.268462 L 173.80297,113.12165 L 163.07207,113.12165 L 185.0087,49.495926 L 194.97989,49.495926 L 216.91652,113.12165 L 206.18562,113.12165 M 190.13674,67.159187 L 183.58424,85.012375 L 196.30939,85.012375 L 190.13674,67.159187 M 258.92612,113.12165 L 248.67003,85.39223 L 236.60963,85.39223 L 236.60963,113.12165 L 226.54347,113.12165 L 226.54347,49.495926 L 247.53047,49.495926 C 249.99949,49.49599 252.12035,49.654263 253.89304,49.970745 C 255.66566,50.224045 257.34335,50.730518 258.92612,51.490165 C 260.31888,52.186627 261.58506,53.104609 262.72467,54.244115 C 263.9275,55.320428 264.94044,56.586611 265.76351,58.042665 C 266.64979,59.435521 267.31454,60.95494 267.75775,62.600926 C 268.26417,64.183705 268.51741,65.766432 268.51746,67.349115 C 268.51741,69.058506 268.26417,70.736198 267.75775,72.382194 C 267.31454,73.964963 266.64979,75.484382 265.76351,76.940455 C 264.94044,78.333292 263.89584,79.599474 262.62971,80.739006 C 261.42679,81.878602 260.0973,82.76493 258.64123,83.397991 L 269.84695,113.12165 L 258.92612,113.12165 M 258.4513,67.349115 C 258.45126,66.019669 258.10306,64.753487 257.4067,63.550564 C 256.71026,62.34774 255.72897,61.398103 254.46282,60.701651 C 253.63977,60.258539 252.88006,59.973648 252.18369,59.846977 C 251.48726,59.657103 250.31604,59.562139 248.67003,59.562086 L 236.60963,59.562086 L 236.60963,75.136143 L 248.67003,75.136143 C 250.25273,75.136181 251.39229,75.072872 252.08873,74.946216 C 252.8484,74.819636 253.63977,74.534745 254.46282,74.091542 C 255.72897,73.395181 256.71026,72.445544 257.4067,71.242629 C 258.10306,69.976489 258.45126,68.678652 258.4513,67.349115 M 280.51702,113.12165 L 280.51702,49.495926 L 290.77311,49.495926 L 290.77311,113.12165 L 280.51702,113.12165 M 301.46395,113.12165 L 301.46395,104.66988 L 330.52286,59.562086 L 303.93301,59.562086 L 303.93301,49.495926 L 344.76743,49.495926 L 344.76743,55.478644 L 315.32866,102.86556 L 344.76743,102.86556 L 344.76743,113.12165 L 301.46395,113.12165 M 399.22767,81.403752 C 399.22762,86.468513 398.62618,91.31166 397.42336,95.933209 C 396.22044,100.55479 394.51109,104.29003 392.29532,107.13893 C 388.74996,111.88712 383.62192,114.26121 376.91118,114.26122 C 372.41621,114.26121 368.71263,113.34323 365.80042,111.50727 C 362.88819,109.6713 360.48244,106.79074 358.58318,102.86556 C 357.25368,100.14328 356.17742,96.851208 355.35441,92.989332 C 354.53138,89.064187 354.11987,85.202331 354.11988,81.403752 C 354.11987,76.149127 354.72131,71.274325 355.92419,66.779332 C 357.19037,62.284431 358.89971,58.517539 361.05224,55.478644 C 362.9515,53.072955 365.19897,51.3003 367.79466,50.160673 C 370.45363,48.957862 373.61908,48.356426 377.29104,48.356361 C 381.34279,48.356426 384.79314,49.274408 387.64209,51.11031 C 390.49096,52.946337 392.92836,55.826901 394.9543,59.752013 C 396.28374,62.600977 397.32835,65.924705 398.0881,69.723209 C 398.84776,73.521799 399.22762,77.41531 399.22767,81.403752 M 389.16151,81.403752 C 389.16147,77.795164 388.84492,74.471436 388.21187,71.432557 C 387.57874,68.330452 386.6291,65.703123 385.36296,63.550564 C 384.34998,61.904576 383.17876,60.701703 381.8493,59.941941 C 380.58308,59.182284 379.00036,58.739121 377.10111,58.612448 C 374.63203,58.485884 372.57448,59.055666 370.92847,60.321796 C 369.28241,61.588031 367.92126,63.645577 366.84503,66.494441 C 366.02199,68.393761 365.3889,70.704543 364.94575,73.426796 C 364.56588,76.085818 364.37595,78.744801 364.37597,81.403752 C 364.37595,84.822476 364.6925,88.11455 365.32561,91.279984 C 365.95868,94.445462 366.90832,97.041135 368.17452,99.067013 C 369.18744,100.71306 370.39032,101.94759 371.78314,102.7706 C 373.17592,103.59363 374.88526,104.00514 376.91118,104.00513 C 379.25359,104.00514 381.18452,103.37205 382.70397,102.10585 C 384.28667,100.83968 385.61616,98.782136 386.69245,95.933209 C 387.00896,95.110207 387.32551,94.128916 387.64209,92.989332 C 387.9586,91.786479 388.21183,90.551951 388.4018,89.285745 C 388.655,87.956277 388.84492,86.626786 388.97158,85.297267 C 389.09816,83.967803 389.16147,82.669966 389.16151,81.403752 M 447.6948,113.12165 L 423.38408,70.0081 L 423.38408,113.12165 L 413.31792,113.12165 L 413.31792,49.495926 L 423.38408,49.495926 L 446.55524,90.140419 L 446.55524,49.495926 L 456.6214,49.495926 L 456.6214,113.12165 L 447.6948,113.12165 M 509.25358,113.12165 L 502.98597,95.268462 L 483.13854,95.268462 L 476.87093,113.12165 L 466.14003,113.12165 L 488.07666,49.495926 L 498.04785,49.495926 L 519.98449,113.12165 L 509.25358,113.12165 M 493.2047,67.159187 L 486.6522,85.012375 L 499.37735,85.012375 L 493.2047,67.159187"
       id="text5049" />
    <text
       xml:space="preserve"
       style="font-style:normal;font-variant:normal;font-weight:normal;font-stretch:normal;font-size:507.73693848px;line-height:125%;font-family:'Roadgeek 2014 Series D';-inkscape-font-specification:'Roadgeek 2014 Series D, Normal';text-align:start;letter-spacing:0px;word-spacing:0px;writing-mode:lr-tb;text-anchor:start;fill:#000000;fill-opacity:1;stroke:none;stroke-width:1px;stroke-linecap:butt;stroke-linejoin:miter;stroke-opacity:1"
       x="300.51987"
       y="470.06766"
       id="text4139"
       sodipodi:linespacing="125%"><tspan
         sodipodi:role="line"
         id="tspan4141"
         x="300.51993"
         y="470.06766"
         style="text-align:center;text-anchor:middle">***NUMBER***</tspan></text>
  </g>
</svg>

<svg xmlns="http://www.w3.org/2000/svg" viewbox="0 0 600 600" width="600" height="600"><path d="m0 50c0-27.614 22.385-50 50-50h500c27.614 0 50 22.386 50 50v500c0 27.615-22.386 50-50 50h-500c-27.615 0-50-22.385-50-50v-500"/><path d="m374.6 580.55c-.048-.112-79.991-18.453-177.65-40.757l-177.57-40.553-.065-199.68-.065-199.68 46.878.066 46.878.066v-40.38-40.38h233.81 233.81l.065 280.75.065 280.75h-103.03c-56.668 0-103.07-.092-103.12-.204z" fill="none" stroke="#000"/><path d="m374.73 581.05c-.048-.112-80.13-18.486-177.97-40.83l-177.88-40.625-.065-200.04-.065-200.04 46.962.067 46.962.067v-40.448-40.448h234.22 234.22l.065 281.25.065 281.25h-103.22c-56.769 0-103.26-.092-103.3-.204" fill="#fff"/><path transform="scale(1.01566.98459)" d="m206.19 113.12l-6.268-17.853h-19.847l-6.268 17.853h-10.731l21.937-63.63h9.971l21.937 63.63h-10.731m-16.05-45.962l-6.553 17.853h12.725l-6.173-17.853m68.789 45.962l-10.256-27.729h-12.06v27.729h-10.07v-63.63h20.987c2.469 0 4.59.158 6.363.475 1.773.253 3.45.76 5.03 1.519 1.393.696 2.659 1.614 3.799 2.754 1.203 1.076 2.216 2.342 3.039 3.799.886 1.393 1.551 2.912 1.994 4.558.506 1.583.76 3.166.76 4.748 0 1.709-.253 3.387-.76 5.03-.443 1.583-1.108 3.102-1.994 4.558-.823 1.393-1.868 2.659-3.134 3.799-1.203 1.14-2.532 2.026-3.988 2.659l11.206 29.724h-10.921m-.475-45.773c0-1.329-.348-2.596-1.045-3.799-.696-1.203-1.678-2.152-2.944-2.849-.823-.443-1.583-.728-2.279-.855-.696-.19-1.868-.285-3.514-.285h-12.06v15.574h12.06c1.583 0 2.722-.063 3.419-.19.76-.127 1.551-.411 2.374-.855 1.266-.696 2.247-1.646 2.944-2.849.696-1.266 1.045-2.564 1.045-3.894m22.07 45.773v-63.63h10.256v63.63h-10.256m20.947 0v-8.452l29.06-45.11h-26.59v-10.07h40.834v5.983l-29.439 47.39h29.439v10.256h-43.3m97.76-31.718c0 5.065-.601 9.908-1.804 14.529-1.203 4.622-2.912 8.357-5.128 11.206-3.545 4.748-8.673 7.122-15.384 7.122-4.495 0-8.199-.918-11.11-2.754-2.912-1.836-5.318-4.717-7.217-8.642-1.33-2.722-2.406-6.01-3.229-9.876-.823-3.925-1.235-7.787-1.235-11.586 0-5.255.601-10.129 1.804-14.624 1.266-4.495 2.976-8.262 5.128-11.301 1.899-2.406 4.147-4.178 6.742-5.318 2.659-1.203 5.824-1.804 9.496-1.804 4.052 0 7.502.918 10.351 2.754 2.849 1.836 5.286 4.717 7.312 8.642 1.329 2.849 2.374 6.173 3.134 9.971.76 3.799 1.14 7.692 1.14 11.681m-10.07 0c0-3.609-.317-6.932-.95-9.971-.633-3.102-1.583-5.729-2.849-7.882-1.013-1.646-2.184-2.849-3.514-3.609-1.266-.76-2.849-1.203-4.748-1.329-2.469-.127-4.527.443-6.173 1.709-1.646 1.266-3.01 3.324-4.083 6.173-.823 1.899-1.456 4.21-1.899 6.932-.38 2.659-.57 5.318-.57 7.977 0 3.419.317 6.711.95 9.876.633 3.165 1.583 5.761 2.849 7.787 1.013 1.646 2.216 2.881 3.609 3.704 1.393.823 3.102 1.235 5.128 1.235 2.342 0 4.273-.633 5.793-1.899 1.583-1.266 2.912-3.324 3.988-6.173.317-.823.633-1.804.95-2.944.317-1.203.57-2.437.76-3.704.253-1.329.443-2.659.57-3.988.127-1.329.19-2.627.19-3.894m58.53 31.718l-24.311-43.11v43.11h-10.07v-63.63h10.07l23.17 40.644v-40.644h10.07v63.63h-8.927m61.56 0l-6.268-17.853h-19.847l-6.268 17.853h-10.731l21.937-63.63h9.971l21.937 63.63h-10.731m-16.05-45.962l-6.553 17.853h12.725l-6.173-17.853"/><text x="300.52" y="470.07" font-family="&apos;Roadgeek 2014 Series D&apos;" letter-spacing="0" word-spacing="0" text-align="start" line-height="125%" font-size="507.74"><tspan x="300.52" y="470.07" text-anchor="middle" text-align="center">***NUMBER***</tspan></text></svg>
